X: 116
T: Chwalcie Pana prze dobroć Jego niewymowną
C: Mikołaj Gomółka
%%abc-version 2.0
%%abcx-abcm2ps-target-version 5.9.1 (29 Sep 2008)
%%abc-creator hum2abc beta
%%abcx-conversion-date 2021/10/04 07:59:10
%%abc-edited-by Marta Lawrence
%%abcx-initial-encoding-date 2020-02-19
%%humdrum-veritas 3259450294
%%humdrum-veritas-data 3301777991
%%linebreak <none>
%%barnumbers 0
L: 1/4
M: C|
N: Derived from pl-wn--sd-xvi-qu-273--118_gomolka-mikolaj--chwalcie-pana-prze-dobroc-jego-niewymowna.krn
%%staves [1 2 3 4]
V: 1
V: 2 clef=alto
V: 3 clef=alto
V: 4 clef=bass
K: F
[V:1] F4B2B2 [|] 
[V:2] C4D3E [|] 
[V:3] A,4B,2B,2 [|] 
[V:4] F,4B,,2B,,2 [|] 
[V:1] A2c2B3A [|] 
[V:2] F2F2D2D2 [|] 
[V:3] C2C2D2B,2 [|] 
[V:4] F,,2F,2B,,2B,,2 [|] 
[V:1] G2B2A3G [|] 
[V:2] E2D2D2C2 [|] 
[V:3] C2G,2A,4 [|] 
[V:4] C,2G,2F,3E, [|] 
[V:1] F4E2C2 [|] 
[V:2] FED2C2E2 [|] 
[V:3] B,2>A,2G,2G,2 [|] 
[V:4] D,C,B,,2C,2C,2 [|] 
[V:1] F2F2E2G3 [|] 
[V:2] C2C2>D2E2 [|] 
[V:3] A,2A,2G,2C2 [|] 
[V:4] F,,2F,,2C,2C,2 [|] 
[V:1] FF4E2 [|] 
[V:2] D2D2C3B, [|] 
[V:3] B,2>A,2G,F,G,2 [|] 
[V:4] D,2B,,2C,4 [|] 
[V:1] F32 |]  
[V:2] A,32 |]  
[V:3] F,32 |]  
[V:4] F,,32 |]  


